svgs/regular/bring-front.svg

<svg xmlns="http://www.w3.org/2000/svg" viewBox="0 0 640 512"><!--! Font Awesome Pro 6.0.0-alpha3 by @fontawesome - https://fontawesome.com License - https://fontawesome.com/license (Commercial License) --><path d="M480 352V160c0-35.35-28.65-64-64-64H224C188.7 96 160 124.7 160 160v192c0 35.35 28.65 64 64 64h192C451.3 416 480 387.3 480 352zM48 48h160V64H256V48C256 21.6 234.4 0 208 0h-160C21.6 0 0 21.6 0 48v160C0 234.4 21.6 256 48 256H128V208H48V48zM592 256H512v48h80v160h-160V448H384v16c0 26.4 21.6 48 48 48h160c26.4 0 48-21.6 48-48v-160C640 277.6 618.4 256 592 256z"/></svg>

<svg xmlns="http://www.w3.org/2000/svg" viewBox="0 0 640 512"><path d="M480 368V144a48 48 0 0 0-48-48H208a48 48 0 0 0-48 48v224a48 48 0 0 0 48 48h224a48 48 0 0 0 48-48zM208 144h224v224H208zM48 48h160v16h48V48a48 48 0 0 0-48-48H48A48 48 0 0 0 0 48v160a48 48 0 0 0 48 48h80v-48H48zm544 208h-80v48h80v160H432v-16h-48v16a48 48 0 0 0 48 48h160a48 48 0 0 0 48-48V304a48 48 0 0 0-48-48zM96 160h32v-16a79.24 79.24 0 0 1 16.41-48H96zm448 192h-32v16a79.24 79.24 0 0 1-16.41 48H544z"/></svg>
